F[BALLADE
CUT[Graf und Nonne (Die Nonne)
    Ich stund auf hohen Bergen,]
CNR[Ich stund auf hohen Bergen.]
REG[Mitteleuropa, Schweiz, Kanton Wallis, Visp, Randa]
SRC[8, S. 63
    ???? aufgezeichnet]
KEY[Q0155P 08  D 4/4]
MEL[5_  1_351_3_  2_5_4_
    2_  -7_24-7_2_  1_5_3_
    1_  1_111_4_  6__+17
    6_  5_554_-7_  1_0__ //] >>
FCT[Ballade, Standesunterschied, vergebliche Werbung, Liebe, Klage]
